storage/app/icons/phosphoricons/bold/ladder-simple-bold.svg

<svg xmlns="http://www.w3.org/2000/svg" fill="currentColor" viewBox="0 0 256 256"><path d="M192 20a12 12 0 0 0-12 12v28H76V32a12 12 0 0 0-24 0v192a12 12 0 0 0 24 0v-28h104v28a12 12 0 0 0 24 0V32a12 12 0 0 0-12-12m-12 64v32H76V84ZM76 172v-32h104v32Z"/></svg>

<svg xmlns="http://www.w3.org/2000/svg" viewBox="0 0 256 256" fill="currentColor"><path d="M192,20a12,12,0,0,0-12,12V60H76V32a12,12,0,0,0-24,0V224a12,12,0,0,0,24,0V196H180v28a12,12,0,0,0,24,0V32A12,12,0,0,0,192,20ZM180,84v32H76V84ZM76,172V140H180v32Z"/></svg>
